!!!!SEGMENT: pl-wnifc--493-n--001-007_oginski-michal-kleofas--16-polonaises-7-polonaise-in-f.krn
!!!cenid: 18xx:3866
!!!COM: Ogiński, Michał Kleofas
!!!COM-rismID: pe30002379
!!!CDT: 1765/09/25-1833/10/15
!!!CNT:
!!!GTL: 16 Polonaises
!!!OTL: 7. [Polonaise in f]
!!!OMV: 007
!!!PDT: 1864
!!!AGN: Secular; Polonaise
!!!YEC: Copyright 2022 Narodowy Instytut Fryderyka Chopina (https://polishscores.org)
!!!YEM: License CC-BY-4.0 (https://creativecommons.org/licenses/by/4.0)
!!!SMS-siglum: PL-Wnifc
!!!SMS-shelfmark: 493/n
!!!SMS-shelfwork: 001-007 G
!!!SMS-variant:
!!!SMS-altvar:
!!!NIFC-rismSourceID: 1001157350
!!!NIFC-rismChildID: 1001157358
!!!NIFC-islandoraID: nifc:212371
!!!URL-pdf-islandora: https://repozytorium.nifc.pl/islandora/object/nifc%3A212371/datastream/PDF/view
!!!URL-scan: https://polish.musicsources.pl/pl/lokalizacje/galeria/druki-muzyczne/16843 @EN{Scan on Polish Music Sources Website} @PL{Skany w portalu Dziedzictwo Muzyki Polskiej w otwartym dostępie}
!!!IIIF:
!!!ONB-nifc: UWAGA: w zbiorze znajduje się 14 Polonezów z Triami, pliki są numerowane jak w źródle.
!!!AIN: 1 piano
!!!key: f
!!!OMD:
!!!OMD-mod: Andante molto
**kern	**kern	**dynam
*part1	*part1	*
*staff2	*staff1	*
*I"Piano.	*I"Piano.	*
*I'	*I'	*
*Ipiano	*Ipiano	*
*ICklav	*ICklav	*
*IGsolo	*IGsolo	*
*mI"Pianoforte	*mI"Pianoforte	*
*mI'pf	*mI'pf	*
*clefF4	*clefG2	*
*k[b-e-a-d-]	*k[b-e-a-d-]	*
*f:	*f:	*
*M3/4	*M3/4	*
*>[A,B,A,B,C,C,A,B,D,D,E,A,B]	*>[A,B,A,B,C,C,A,B,D,D,E,A,B]	*
=1	=1	=1
*>A	*>A	*
*^	*	*
!	!	!LO:TX:b:i:t=espress.	!
!	!	!LO:TX:a:B:t=Andante molto.:mod=	!
8FF/L 8F	2.F\	4.f/	p
8A-/J 8c	.	.	.
8A-'/L 8c	.	.	.
8A-'/ 8c	.	(16.a-/LL	.
.	.	32g/JJk)	.
8A-'/ 8c	.	8a-/L	.
8A-'/J 8c	.	(16.cc/L	.
.	.	32bn/JJk)	.
=2	=2	=2	=2
8FF/L 8F	2.F\	4.cc^\	.
8A-/J 8c	.	.	.
8A-'/L 8c	.	.	.
.	.	(32qqdd-/LLL	.
.	.	32qqcc/	.
.	.	32qqbn/	.
.	.	32qqcc/JJJ	.
8A-'/ 8c	.	16dd-\LL)	.
.	.	16cc\JJ	.
8A-'/ 8c	.	16b-X/LL	.
.	.	16a-/	.
8A-'/J 8c	.	16g/	.
.	.	16f/JJ	.
=3	=3	=3	=3
8FF/L 8F	2.F\	16r	.
!	!	!	!LO:MO:mod=!null:null
!	!	!	!LO:HP:a
.	.	(16en/LL	<
8G/J 8B- 8d-	.	16g/	.
.	.	16e/JJ	.
8G'/L 8B- 8d-	.	16b-/LL	.
.	.	16g/	.
8G'/ 8B- 8d-	.	16dd-/	.
.	.	16b-/JJ)	.
8G'/ 8B- 8d-	.	(16een\LL	.
.	.	16dd-\	.
8G'/J 8B- 8d-	.	16gg\	.
.	.	16ee\JJ)	[[
!!LO:LB:g=original
=4	=4	=4	=4
!	!	!	!LO:MO:mod=!null:null
!	!	!	!LO:HP:a
8FF/L 8F	2.F\	8.bb-\L	>
8G/J 8B- 8d-	.	.	.
.	.	16gg\Jk	.
8G'/L 8B- 8d-	.	8een\L	.
8G'/ 8B- 8d-	.	8b-\ 8dd- 8ee	.
8G'/ 8B- 8d-	.	8b-\ 8dd- 8ee	.
8G'/J 8B- 8d-	.	8b-\J 8dd- 8ee	]
*v	*v	*	*
=5	=5	=5
4F\ 4A- 4c	8ffsSSs^<\L	.
.	16.aa-\L	.
.	32gg\JJk	.
*clefG2	*	*
8r	2ff\	.
!LO:TX:t=P:problem:skreślony ołówkiem kasownik przy AA	!	!
8A-/L 8c 8f	.	.
8A-/ 8c 8f	.	.
8A-/J 8c 8f	.	.
=6	=6	=6
.	(8qgg/	.
4B-^>/ 4d- 4f	8ff^\L)	.
.	(16ee-X\L	.
.	16dd-\JJ)	.
8r	2dd-\	.
!	!	!LO:MO:mod=!null:null
!	!	!LO:HP:b=2
8B-/L 8d- 8f	.	<
8B-/ 8d- 8f	.	.
8B-/J 8d- 8f	.	[
=7	=7	=7
.	(8qff/	f <
8Bn:/ 8dn: 8f: 8a-X:	8aa-^\L)	.
8r	16.gg\L	.
.	32ff\JJk	.
8B/ 8d 8f 8a-	8aa-^\L	.
8r	16.gg\L	.
.	32ff\JJk	.
8B/ 8d 8f 8a-	8aa-^\L	.
8r	16.gg\L	.
.	32ff\JJk	[
!!LO:LB:g=original
=8	=8	=8
4c/ 4en 4g	(16ccc\LL	f >
.	16bbn\	.
.	16ddd-\	.
.	16ccc\JJ	.
4r	16bb-X\LL	.
.	16aa-\	.
.	16gg\	.
.	16ff\JJ	.
4r	16een\LL	.
.	16dd-\	.
.	16cc\	.
.	16b-\JJ)	]]
*clefF4	*	*
=9	=9	=9
*^	*	*
8F/L	2.F\	(8a-/	p
8A-/J 8c	.	4f/	.
8A-'/L 8c	.	.	.
8A-'/ 8c	.	16a-/LL	.
.	.	16g/JJ	.
8A-'/ 8c	.	16b-/LL	.
.	.	16a-/	.
8A-'/J 8c	.	16cc/	.
.	.	16bn/JJ)	.
!LO:TX:b:t=[segno]	!	!LO:TX:a:t=[segno]	!
=10||	=10||	=10||	=10||
*>B	*>B	*>B	*
8F/L	2.F\	16cc\LL	<
.	.	(16een\	.
8A-/J 8c	.	16ff\)	.
.	.	(16bn\JJ	.
8A-'/L 8c	.	16cc/LL)	.
.	.	(16g/	.
8A-'/ 8c	.	16a-/)	.
.	.	(16en/JJ	.
8A-'/ 8c	.	16f/LL)	.
.	.	(16a-/	.
8A-'/J 8c	.	16bn/)	.
.	.	16cc'/JJ	[[
=11	=11	=11	=11
8FF/L 8F	2.F\	(16dd-X/LL	>
.	.	16b-/)	.
8G/J 8B- 8d-	.	16g'/	]
.	.	16en'/JJ	.
8G'/L 8B- 8d-	.	(16dd-/LL	>
.	.	16b-/)	.
8G'/ 8B- 8d-	.	16g'/	]
.	.	16e'/JJ	.
8G'/ 8B- 8d-	.	(16dd-/LL	>
.	.	16b-/)	.
8G'/J 8B- 8d-	.	16g'/	]
.	.	16e'/JJ	.
!!LO:LB:g=original
=12	=12	=12	=12
8F/L	2.F\	4.dd-:\ 4.een: 4.gg: 4.bb-:	ff
8G/J 8B- 8d-	.	.	.
8G'/L 8B- 8d-	.	.	.
8G'/ 8B- 8d-	.	16b-'\LL 16dd- 16ee	.
.	.	16b-'\JJ 16dd- 16ee	.
8G'/ 8B- 8d-	.	8b-'\L 8dd- 8ee	.
8G'/J 8B- 8d-	.	8b-'\J 8dd- 8ee	.
*v	*v	*	*
=13	=13	=13
4F\ 4A- 4c	(16ffsSSs\LL	>
.	16aa-\	.
.	16gg\	.
.	16een\JJ)	]
*clefG2	*	*
8r	16ff\	.
.	16r	.
(8An'/L 8c 8e-	(8g-X'\L 8gg-X	f
8A'/ 8c 8e-	8g-'\ 8gg-	.
8A'/J) 8c 8e-	8g-'\J) 8gg-	.
=14	=14	=14
4B-/ 4d-X 4g	(16ggnsSSs\LL	>
!	!LO:SIC:v:s=16bb-	!
.	16bb#X\	.
.	16aan\	.
.	16ff#X\JJ)	]
8r	16gg\	.
.	16r	.
(8Bn'/L 8dn 8f	(8a-'\L 8aa-X	f
8B'/ 8d 8f	8a-'\ 8aa-	.
8B'/J) 8d 8f	8a-'\J) 8aa-	.
=15	=15	=15
*^	*	*
8c/L	2.c\	(16ccc\LL	.
.	.	16bbn\	.
8f/J 8a- 8cc	.	16ddd-\	.
.	.	16ccc\JJ	.
8f'</L 8a- 8cc	.	16bb-X\LL	.
.	.	16aa-\	.
8f'</ 8a- 8cc	.	16gg\	.
.	.	16ff\JJ	.
8f'</ 8a- 8cc	.	16een\LL	.
.	.	16ff\	.
8f'</J 8a- 8cc	.	16aa-\	.
.	.	16bb-\JJ)	.
*v	*v	*	*
!!LO:LB:g=original
=16	=16	=16
!LO:SIC:v:s=4c/ 4en 4b-	!	!
4c/ 4en 4bn	(16ccc\LL	.
.	16bb-\	.
.	16aa-\	.
.	16gg\JJ)	.
8r	(4gg\	.
!LO:SIC:v:s=8c/L 8e 8b-	!	!
8c/L 8e 8b	.	.
!	!LO:TX:b:t=Fine.:mod=	!
8f/J 8a-	8ff\)	.
8r	8r	.
*clefF4	*	*
!!LO:TX:a:B:rj:t=:mod=Fine
=17:|!|:	=17:|!|:	=17:|!|:
*>C	*>C	*
8AA-\L	4.c/ 4.e-X 4.a-	f
8A-\	.	.
8AA-\	.	.
8A-\	16.c/LL 16.e- 16.a-	.
.	32c/JJk 32e- 32a-	.
8AA-\	8c/L 8e- 8a-	.
8A-\J	8c/J 8e- 8a-	.
=18	=18	=18
4EE-/ 4E-	(8e-/L 8g 8b-	>
.	8e-/ 8ee-	.
4r	8f/ 8ddn	.
.	8g/ 8dd-X	.
4r	8a-/ 8cc	.
.	8g/J) 8b-	]]
=19	=19	=19
8FF/L	4.f\ 4.a- 4.cc 4.ff	f
8F/	.	.
8FF/	.	.
8F/	16.f\LL 16.a- 16.cc 16.ff	.
.	32f\JJk 32a- 32cc 32ff	.
8FF/	8f\L 8a- 8cc 8ff	.
8F/J	8f\J 8a- 8cc 8ff	.
=20	=20	=20
4CC/ 4C	8g'\L 8cc 8een	>
.	(8cc\ 8ccc	.
!	!LO:SIC:v:s=8dd\ 8bbn	!
4r	8dd-\ 8bbn	.
.	8een\ 8bb-X	.
4r	8ff\ 8aa-	.
.	8ee\J) 8gg	]]
!!LO:PB:g=original
=21	=21	=21
*	*^	*
((2.DD-X/ 2.D-X	(8ff/L	2.f\ 2.a-	f >
.	8dd-X/	.	.
.	8cc/	.	.
.	8bn/	.	.
.	8ff/	.	.
.	8b/J)	.	]]
*	*v	*v	*
=22	=22	=22
4CC/)) 4C	16en/LL 16g 16cc	<
.	16r	.
.	16.cc/	.
.	32dd-/JJk	.
4r	16cc\LL	.
.	16r	.
.	(16.cc\	[
.	32dd-\JJk)	>
4r	16cc\LL	.
.	16r	.
.	(16.cc\	.
.	32dd-\JJk)	.
=23	=23	=23
2.r	16cc\LL	.
.	16r	.
.	(16.cc\	.
.	32dd-\JJk)	.
.	16cc\LL	.
!	!	!
.	16r	.
!LO:TX:b:i:t=Dal Segno al Fine e poi Trio.:mod=	!	!
.	(16.ee-X\	.
.	32dd-\JJk)	.
.	(16cc/LL	.
.	16b-/	.
.	16a-/	.
.	16g/JJ)	]]
=24	=24	=24
*^	*	*
8FF/L 8F	2.F\	4.f/	]
8A-/J 8c	.	.	.
8A-'/L 8c	.	.	.
8A-'/ 8c	.	(16a-/LL	.
.	.	16g/JJ	.
8A-'/ 8c	.	16b-/LL	.
.	.	16a-/	.
8A-'/J 8c	.	16cc/	.
.	.	16b-/JJ)	.
*v	*v	*	*
!LO:TX:b:t=[segno]	!LO:TX:t=[segno]	!
!!LO:LB:g=original
!!LO:TX:a:B:rj:t=:mod=Dal Segno al Fine e poi Trio
!LO:MO:mod==25:|!|:	!LO:MO:mod==25:|!|:	!LO:MO:mod==25:|!|:
==25	==25	==25
*>D	*>D	*
*M3/4	*M3/4	*
!	!LO:TX:a:t=Trio.	!
(8F\L	(8f\L	p <
8G\	8g\	.
8A-\	8a-\	.
8B-\	8b-\	.
8c\	8cc\	.
8d-\J)	8dd-\J)	[[
=26	=26	=26
((4En\ 4G 4B- 4d-	((4g\ 4b- 4dd-	>
8F\)) 8A- 8c	8a-\)) 8cc	.
8r	8r	]
4r	4r	.
=27	=27	=27
((4CC/ 4C	((4en^>/ 4g 4b-	p
4DD-/)) 4D-	4f/)) 4a-	.
4BBB-/ 4BB-	(16g/LL	.
.	16dd-/	.
.	16b-/	.
.	16g/JJ)	.
=28	=28	=28
4.CC/ 4.C	(4f/ 4a-	.
.	4en/) 4g	.
(8C/L	.	.
8BBn/	4r	.
8BB-X/J)	.	.
=29	=29	=29
(8AA-\L	(8f/L	p <
8BB-\	8g/	.
8C\	8a-/	.
8D-\	8b-/	.
8E-\	8cc/	.
8F\J)	8dd-/J)	[[
!!LO:LB:g=original
=30	=30	=30
((4B-^\ 4d-	((4g^\ 4een	f
8A-\)) 8c	8f\)) 8ff	.
8r	8r	.
4r	4r	.
=31	=31	=31
(4B-\ 4d-	(16g/LL	p
.	16dd-/)	.
.	16b-'/	.
.	16g'/JJ	.
4c\)	(16f/LL	.
.	16cc/)	.
.	16a-'/	.
.	16f'/JJ	.
((4C^\ 4G 4B-	(16en/LL	.
.	16cc/)	.
.	16g'/	.
.	16a-'/JJ	.
=32	=32	=32
4F\)) 4A-	4f/	.
4r	4r	.
4r	4r	.
=33:|!	=33:|!	=33:|!
*>E	*>E	*
.	(<32qqcc/LLL	fp >
.	32qqdd-/	.
!	!LO:TX:b:i:t=doloroso.:mod=doloroso	!
.	32qqee-/JJJ	.
8r	8.dd-/L)	.
8en>\L 8g> 8b->	.	.
.	16cc/Jk	.
8e>\ 8g> 8b->	4cc/	.
8e>\ 8g> 8b->	.	.
8e>\ 8g> 8b->	4r	]]
8e>\J 8g> 8b->	.	.
!!LO:LB:g=original
=34	=34	=34
.	(<32qqeen/LLL	fp
.	32qqff/	.
.	32qqgg/JJJ	.
8r	8.ff/L)	.
8g>\L 8b-> 8dd->	.	>
.	16een/Jk	.
8g>\ 8b-> 8dd->	4ee/	.
8g>\ 8b-> 8dd->	.	.
8g>\ 8b-> 8dd->	4rgg	]]
8g>\J 8b-> 8dd->	.	.
=35	=35	=35
4c>\ 4g> 4b->	(16gg/LL	<
.	16ff/	.
.	16een/	.
.	16bb-/JJ	.
4r>	16aa-/LL	.
.	16gg/	.
.	16ddd-/	.
.	16ccc/JJ	.
4r>	16bb-/LL	.
.	16aa-/	.
.	16gg/	.
.	16ff/JJ)	[[
=36	=36	=36
2.r	16ff\LL	>
.	16een\	.
.	16gg\	.
.	16ff\JJ	.
.	16ee\LL	.
.	16dd-X\	.
.	16cc\	.
.	16dd-\JJ	.
.	16cc\LL	.
.	16b-\	.
.	16a-\	.
.	16g\JJ	]
!!LO:LB:g=original
=37	=37	=37
(8F\L	(8f/L	p <
8G\	8g/	.
8A-\	8a-/	.
8B-\	8b-/	.
8c\	8cc/	.
8d-\J)	8dd-/J)	[[
=38	=38	=38
((4B-^\ 4d-	((4g^\ 4een	f
8A-\)) 8c	8f\)) 8ff	.
8r	8r	.
4r	4r	.
=39	=39	=39
(4B-\ 4d-	(16g/LL	p
.	16dd-/)	.
.	16b-'/	.
.	16g'/JJ	.
4c\)	(16f/LL	.
.	16cc/)	.
.	16a-'/	.
.	16f'/JJ	.
4C^\ 4G 4B-	(16en/LL	.
.	16cc/)	.
.	16g'/	.
.	16a-'/JJ	.
=40	=40	=40
4F\ 4A-	4f/	.
!LO:TX:b:i:t=Da Capo al Fine.:mod=	!	!
4r	8r	.
.	8c'/L	.
4r	8c'/	.
.	8c'/J	.
!!LO:TX:a:B:t=:mod=Da Capo al Fine
==	==	==
*-	*-	*-
!!!RDF**kern: > = above
!!!RDF**kern: < = below
!!!system-decoration: {(*)}
!!!filter-modern: sic -sq | shed -k -e "s/:TUP:/:tup:/L" | shed -e "s/TX(.*):t=P:/tx$1:t=P:/LG" | shed -k -e "s/LO:N:vis/LO:n:vis:/L"  | shed -e "s/:rj/:RJ/L" | shed -k -e "s/([^a-gA-Gn#X-])[<>]/$1/g" | shed -e "s/LO:DY:(a|b|rj)/LO:dy:$1/L" | shed -e "s/-//B" | autostem -r | modori -m
!!!ENC: Filip Voros
!!!END: 2022-07-25
!!!EED: Urszula Świątek
!!!EEV: 2022-08-22
!!!ENC-modern: Andrzej Borzym
!!!END-modern: 2022-08-30
